raw-svg/volume-down.svg

<svg viewBox="0 0 24 24" xmlns="http://www.w3.org/2000/svg"><path d="m15 19.75a.81.81 0 0 1 -.47-.16l-4.79-3.84h-4.74a.76.76 0 0 1 -.75-.75v-6a.76.76 0 0 1 .75-.75h4.74l4.79-3.84a.75.75 0 0 1 1.22.59v14a.76.76 0 0 1 -.43.68.71.71 0 0 1 -.32.07zm-9.25-5.5h4.25a.78.78 0 0 1 .47.16l3.78 3v-10.85l-3.78 3a.78.78 0 0 1 -.47.16h-4.25z"/><path d="m18.11 15.38a.78.78 0 0 1 -.45-.15.75.75 0 0 1 -.15-1.05 3.6 3.6 0 0 0 0-4.36.75.75 0 1 1 1.2-.9 5.07 5.07 0 0 1 0 6.16.77.77 0 0 1 -.6.3z"/></svg>

<svg xmlns="http://www.w3.org/2000/svg" viewBox="0 0 24 24"><g id="volume-down"><path d="M15,19.75a.81.81,0,0,1-.47-.16L9.74,15.75H5A.76.76,0,0,1,4.25,15V9A.76.76,0,0,1,5,8.25H9.74l4.79-3.84A.75.75,0,0,1,15.75,5V19a.76.76,0,0,1-.43.68A.71.71,0,0,1,15,19.75Zm-9.25-5.5H10a.78.78,0,0,1,.47.16l3.78,3V6.56l-3.78,3a.78.78,0,0,1-.47.16H5.75Z"/><path d="M18.11,15.38a.78.78,0,0,1-.45-.15.75.75,0,0,1-.15-1.05,3.6,3.6,0,0,0,0-4.36.75.75,0,1,1,1.2-.9,5.07,5.07,0,0,1,0,6.16A.77.77,0,0,1,18.11,15.38Z"/></g></svg>
